X:1
T:The Comical Dreamer
M:4/4
L:1/8
K:C
 A2 AB c3 c|d-c Bc d4| A2 AB c2 e2|d-cB-A A3 B| c2 c2 B2A-G|A-GA-B c4|\
A-B cA d2 d2|B-c dB e2 e2|d-cB-A A4| e2 ee e2 e2| f2e-d e4| A2 AB c2 e2|\
d-cB-A A3 B| c2 c2 B2 AG|A-GA-B c4|A-B cc d2 d2|B-c dB e2 e2|d-cB-A A4|\
